src/assets/img/catalog-single/paint.svg

<svg width="45" height="45" viewBox="0 0 45 45" fill="none" xmlns="http://www.w3.org/2000/svg">
<g clip-path="url(#clip0)">
<path d="M42.9844 44.8767H3.71035C2.83146 44.8767 2.11816 44.1567 2.11816 43.2694C2.11816 42.3822 2.83146 41.6621 3.71035 41.6621H42.9844C43.8633 41.6621 44.5766 42.3822 44.5766 43.2694C44.5766 44.1567 43.8633 44.8767 42.9844 44.8767Z" fill="#333333"/>
<path d="M17.3604 38.4454C15.8981 38.4454 14.4353 37.8838 13.3228 36.7588L1.67022 24.9955C-0.556741 22.7474 -0.556741 19.0893 1.67022 16.8412L17.6939 0.667182C18.3159 0.0393247 19.3242 0.0393247 19.9462 0.667182L37.4241 18.3112C37.7238 18.6133 37.8913 19.0226 37.8913 19.4472C37.8913 19.8714 37.7238 20.283 37.4241 20.5828L21.4004 36.7568C20.2859 37.8819 18.8212 38.4454 17.3604 38.4454ZM18.8169 4.07488L3.92051 19.1148C3.44277 19.5971 3.17961 20.2355 3.17961 20.9172C3.17961 21.5988 3.44277 22.2396 3.92051 22.7219L15.5731 34.4852C16.5262 35.4473 18.1927 35.4473 19.1481 34.4852L34.0465 19.4472L18.8169 4.07488Z" fill="#333333"/>
<path d="M39.2691 38.4478C36.3416 38.4478 33.9619 35.9638 33.9619 32.912C33.9619 30.452 37.0083 25.5979 37.9404 24.1703C38.5282 23.2662 40.01 23.2662 40.5981 24.1703C41.5302 25.5979 44.5766 30.452 44.5766 32.912C44.5766 35.9638 42.1969 38.4478 39.2691 38.4478ZM39.2691 28.1136C38.1018 30.1498 37.1463 32.1751 37.1463 32.912C37.1463 34.1936 38.0975 35.2331 39.2691 35.2331C40.4411 35.2331 41.3922 34.1917 41.3922 32.912C41.3922 32.1727 40.4368 30.1475 39.2691 28.1136Z" fill="#333333"/>
<path d="M34.9644 22.2146L16.84 37L1.59219 22.2146C0.713297 22.2146 0 21.4946 0 20.6073C0 19.7201 0.713297 19 1.59219 19H34.9644C35.8433 19 36.5566 19.7201 36.5566 20.6073C36.5566 21.4946 35.8456 22.2146 34.9644 22.2146Z" fill="#333333"/>
</g>
<defs>
<clipPath id="clip0">
<rect width="44.5765" height="45" fill="white"/>
</clipPath>
</defs>
</svg>

<svg width="45" height="45" fill="none" xmlns="http://www.w3.org/2000/svg"><g clip-path="url(#clip0)" fill="#333"><path d="M42.984 44.877H3.71a1.6 1.6 0 01-1.592-1.608 1.6 1.6 0 011.592-1.607h39.274a1.6 1.6 0 011.593 1.607 1.6 1.6 0 01-1.593 1.608zM17.36 38.445a5.66 5.66 0 01-4.037-1.686L1.67 24.995c-2.227-2.248-2.227-5.906 0-8.154L17.694.667a1.582 1.582 0 012.252 0l17.478 17.644a1.614 1.614 0 010 2.272L21.4 36.757a5.673 5.673 0 01-4.04 1.688zm1.457-34.37L3.92 19.115a2.542 2.542 0 00-.741 1.802c0 .682.263 1.323.74 1.805l11.653 11.763c.953.962 2.62.962 3.575 0l14.899-15.038-15.23-15.372zM39.27 38.448c-2.928 0-5.308-2.484-5.308-5.536 0-2.46 3.046-7.314 3.978-8.742.588-.904 2.07-.904 2.658 0 .932 1.428 3.979 6.282 3.979 8.742 0 3.052-2.38 5.536-5.308 5.536zm0-10.334c-1.168 2.036-2.124 4.061-2.124 4.798 0 1.282.951 2.321 2.123 2.321 1.172 0 2.123-1.041 2.123-2.321 0-.74-.955-2.764-2.123-4.798z"/><path d="M34.964 22.215L16.84 37 1.592 22.215A1.6 1.6 0 010 20.607 1.6 1.6 0 011.592 19h33.372a1.6 1.6 0 011.593 1.607 1.6 1.6 0 01-1.593 1.608z"/></g><defs><clipPath id="clip0"><path fill="#fff" d="M0 0h44.577v45H0z"/></clipPath></defs></svg>
